src/48/apps/office-calendar.svg

<?xml version="1.0" encoding="UTF-8" standalone="no"?>
<svg
   xmlns:dc="http://purl.org/dc/elements/1.1/"
   xmlns:cc="http://creativecommons.org/ns#"
   xmlns:rdf="http://www.w3.org/1999/02/22-rdf-syntax-ns#"
   xmlns:svg="http://www.w3.org/2000/svg"
   xmlns="http://www.w3.org/2000/svg"
   xmlns:sodipodi="http://sodipodi.sourceforge.net/DTD/sodipodi-0.dtd"
   xmlns:inkscape="http://www.inkscape.org/namespaces/inkscape"
   version="1.1"
   width="48"
   height="48"
   id="svg3111"
   sodipodi:docname="office-calendar.svg"
   inkscape:version="0.92.4 (5da689c313, 2019-01-14)">
  <sodipodi:namedview
     pagecolor="#ffffff"
     bordercolor="#666666"
     borderopacity="1"
     objecttolerance="10"
     gridtolerance="10"
     guidetolerance="10"
     inkscape:pageopacity="0"
     inkscape:pageshadow="2"
     inkscape:window-width="1366"
     inkscape:window-height="697"
     id="namedview61"
     showgrid="false"
     inkscape:zoom="2.4583333"
     inkscape:cx="-8.4249497"
     inkscape:cy="61.735297"
     inkscape:window-x="0"
     inkscape:window-y="0"
     inkscape:window-maximized="1"
     inkscape:current-layer="svg3111" />
  <defs
     id="defs3113" />
  <metadata
     id="metadata3116">
    <rdf:RDF>
      <cc:Work
         rdf:about="">
        <dc:format>image/svg+xml</dc:format>
        <dc:type
           rdf:resource="http://purl.org/dc/dcmitype/StillImage" />
        <dc:title />
      </cc:Work>
    </rdf:RDF>
  </metadata>
  <rect
     width="38"
     height="38"
     rx="2"
     ry="2"
     x="5"
     y="6"
     id="rect5505-21"
     style="color:#000000;fill:#f9f9f9;fill-opacity:1;fill-rule:nonzero;stroke:none;stroke-width:0.99999994;marker:none;visibility:visible;display:inline;overflow:visible;enable-background:accumulate" />
  <path
     d="m 4.500013,15 0,27.372728 c 0,1.178509 0.948764,2.127272 2.127273,2.127272 l 34.745453,0 c 1.17851,0 2.127273,-0.948763 2.127273,-2.127272 l 0,-27.372728"
     id="rect4567"
     style="opacity:0.2;fill:none;stroke:#000000;stroke-width:0.99999994;stroke-miterlimit:4;stroke-dasharray:none" />
  <path
     d="m 6.627285,5.5000013 c -1.178509,0 -2.127272,0.948764 -2.127272,2.127273 l 0,6.8727257 38.999999,0 0,-6.8727257 c 0,-1.178509 -0.948764,-2.127273 -2.127273,-2.127273 z"
     id="rect5505-21-3-8-5-2-6-1"
     style="color:#000000;fill:#9add49;fill-opacity:1;fill-rule:nonzero;stroke:none;stroke-width:0.99999994;marker:none;visibility:visible;display:inline;overflow:visible;enable-background:accumulate" />
  <path
     d="m 6.627286,5.5000013 c -1.178509,0 -2.127273,0.948764 -2.127273,2.127273 l 0,6.8727257 38.999999,0 0,-6.8727257 c 0,-1.178509 -0.948763,-2.127273 -2.127273,-2.127273 z"
     id="rect5505-21-3-8-9-1-1-7-8"
     style="opacity:0.25;color:#000000;fill:none;stroke:#126400;stroke-width:0.99999994;stroke-linecap:round;stroke-linejoin:miter;stroke-miterlimit:4;stroke-opacity:1;stroke-dasharray:none;stroke-dashoffset:0;marker:none;visibility:visible;display:inline;overflow:visible;enable-background:accumulate" />
  <path
     d="m 11.464567,11.472441 a 1.1023622,1.0472441 0 1 1 -2.2047246,0 1.1023622,1.0472441 0 1 1 2.2047246,0 z"
     transform="matrix(0.9071429,0,0,0.95488721,28.6,-0.95488626)"
     id="path4682-6-1-5"
     style="opacity:0.4;color:#000000;fill:#126400;fill-opacity:1;fill-rule:nonzero;stroke:none;stroke-width:1.07444978;marker:none;visibility:visible;display:inline;overflow:visible;enable-background:accumulate" />
  <path
     d="M 38.510676,33.5 9.5,33.5 z M 38.48932,19.529672 9.5,19.507389 l 0,18.992605 29.010675,0 z M 38.51068,29.5 9.500004,29.5 m 29.010676,-5 -29.010676,0 m 6.019641,-4.950508 -0.03929,18.950507 M 20.5038,19.631982 20.4962,38.499999 m 5.99975,-18.93401 0.0081,18.93401 m 5.9813,-19 0.0293,19"
     id="rect4188-6-4-0-8"
     style="opacity:0.25;fill:none;stroke:#5e553c;stroke-width:1;stroke-miterlimit:4;stroke-opacity:1;stroke-dasharray:none" />
  <path
     d="m 11.464567,11.472441 a 1.1023622,1.0472441 0 1 1 -2.2047246,0 1.1023622,1.0472441 0 1 1 2.2047246,0 z"
     transform="matrix(0.9071429,0,0,0.95488721,0.6,-0.95488594)"
     id="path4682-6-1-5-0"
     style="opacity:0.4;color:#000000;fill:#126400;fill-opacity:1;fill-rule:nonzero;stroke:none;stroke-width:1.07444978;marker:none;visibility:visible;display:inline;overflow:visible;enable-background:accumulate" />
</svg>

<svg xmlns="http://www.w3.org/2000/svg" width="48" height="48"><rect width="38" height="38" rx="2" ry="2" x="5" y="6" style="marker:none" color="#000" fill="#f9f9f9" overflow="visible"/><path d="M4.5 15v27.373c0 1.178.949 2.127 2.127 2.127h34.746a2.123 2.123 0 0 0 2.127-2.127V15" opacity=".2" fill="none" stroke="#000"/><path d="M6.627 5.5A2.123 2.123 0 0 0 4.5 7.627V14.5h39V7.627A2.123 2.123 0 0 0 41.373 5.5z" style="marker:none" color="#000" fill="#9add49" overflow="visible"/><path d="M6.627 5.5A2.123 2.123 0 0 0 4.5 7.627V14.5h39V7.627A2.123 2.123 0 0 0 41.373 5.5z" style="marker:none" opacity=".25" color="#000" fill="none" stroke="#126400" stroke-linecap="round" overflow="visible"/><path d="M39 10a1 1 0 1 1-2 0 1 1 0 1 1 2 0z" style="marker:none" opacity=".4" color="#000" fill="#126400" overflow="visible"/><path d="M38.51 33.5H9.5zm-.02-13.97L9.5 19.507V38.5h29.01zm.02 9.97H9.5m29.01-5H9.5m6.02-4.95l-.04 18.95m5.024-18.868L20.496 38.5m6-18.934l.008 18.934m5.981-19l.03 19" opacity=".25" fill="none" stroke="#5e553c"/><path d="M11 10a1 1 0 1 1-2 0 1 1 0 1 1 2 0z" style="marker:none" opacity=".4" color="#000" fill="#126400" overflow="visible"/></svg>
